svgs/duotone/plus-minus.svg

<svg xmlns="http://www.w3.org/2000/svg" viewBox="0 0 384 512"><!--! Font Awesome Pro 6.6.0 by @fontawesome - https://fontawesome.com License - https://fontawesome.com/license (Commercial License) Copyright 2024 Fonticons, Inc. --><path class="fa-secondary" style="fill:var(--fa-secondary-color,inherit);opacity:var(--fa-secondary-opacity,.4);" d="M0 480c0-17.7 14.3-32 32-32l320 0c17.7 0 32 14.3 32 32s-14.3 32-32 32L32 512c-17.7 0-32-14.3-32-32z"/><path class="fa-primary" style="fill:var(--fa-primary-color,inherit);opacity:var(--fa-primary-opacity,1);" d="M224 32c0-17.7-14.3-32-32-32s-32 14.3-32 32l0 112L48 144c-17.7 0-32 14.3-32 32s14.3 32 32 32l112 0 0 112c0 17.7 14.3 32 32 32s32-14.3 32-32l0-112 112 0c17.7 0 32-14.3 32-32s-14.3-32-32-32l-112 0 0-112z"/></svg>

<svg xmlns="http://www.w3.org/2000/svg" viewBox="0 0 384 512"><!--! Font Awesome Pro 6.4.2 by @fontawesome - https://fontawesome.com License - https://fontawesome.com/license (Commercial License) Copyright 2023 Fonticons, Inc. --><path class="fa-primary" style="fill:var(--fa-primary-color,inherit);opacity:var(--fa-primary-opacity,1);" d="M224 32c0-17.7-14.3-32-32-32s-32 14.3-32 32V144H48c-17.7 0-32 14.3-32 32s14.3 32 32 32H160V320c0 17.7 14.3 32 32 32s32-14.3 32-32V208H336c17.7 0 32-14.3 32-32s-14.3-32-32-32H224V32z"/><path class="fa-secondary" style="fill:var(--fa-secondary-color,inherit);opacity:var(--fa-secondary-opacity,.4);" d="M0 480c0-17.7 14.3-32 32-32H352c17.7 0 32 14.3 32 32s-14.3 32-32 32H32c-17.7 0-32-14.3-32-32z"/></svg>
